components/2.0/icon/icons/icon-screen-mode-22px.svg

<svg width="22" height="22" xmlns="http://www.w3.org/2000/svg"><g fill="#3D4752" fill-rule="evenodd"><path d="M3 2h6v2H4v5H2V2h1zM20 3v6h-2V4h-5V2h7v1zM18 18h-5v2h7v-7h-2v5zM4 18v-5H2v7h7v-2H4zM14 8v6H8V8h6zm1-1H7v8h8V7z"/></g></svg>

<?xml version="1.0" encoding="UTF-8" standalone="no"?>
<svg width="22px" height="22px" viewBox="0 0 22 22" version="1.1" xmlns="http://www.w3.org/2000/svg" xmlns:xlink="http://www.w3.org/1999/xlink" xmlns:sketch="http://www.bohemiancoding.com/sketch/ns">
    <!-- Generator: Sketch 3.4.4 (17249) - http://www.bohemiancoding.com/sketch -->
    <title>icon-screen-mode-22px</title>
    <desc>Created with Sketch.</desc>
    <defs></defs>
    <g id="22px" stroke="none" stroke-width="1" fill="none" fill-rule="evenodd" sketch:type="MSPage">
        <g id="icon-screen-mode-22px" sketch:type="MSArtboardGroup" fill="#3D4752">
            <path d="M3,2 L9,2 L9,4 L4,4 L4,9 L2,9 L2,2 L3,2 Z" id="Rectangle-path" sketch:type="MSShapeGroup"></path>
            <path d="M20,3 L20,9 L18,9 L18,4 L13,4 L13,2 L20,2 L20,3 Z" id="Rectangle-path" sketch:type="MSShapeGroup"></path>
            <path d="M18,18 L13,18 L13,20 L19,20 L20,20 L20,13 L18,13 L18,18 Z" id="Rectangle-path" sketch:type="MSShapeGroup"></path>
            <path d="M4,18 L4,13 L2,13 L2,19 L2,20 L9,20 L9,18 L4,18 Z" id="Rectangle-path" sketch:type="MSShapeGroup"></path>
            <path d="M14,8 L14,14 L8,14 L8,8 L14,8 L14,8 Z M15,7 L7,7 L7,15 L15,15 L15,7 L15,7 L15,7 Z" id="Shape" sketch:type="MSShapeGroup"></path>
        </g>
    </g>
</svg>
